X:262
T:Waltz Of The Late Evening Moon
R:waltz
C:Bruce Osborne - May 2005
Z:abc by bosborne@kos.net
M:3/4
L:1/8
K:Amaj
ED|CA, CE AB|ce cB AF|EC A,B, CE|A3 c BA|\
GB ef gf|eg fe Bc|1 dc de gf|e4:|2dB GB EG|A4
|:cd|ec ag fe|ce AB ce|ag fe AB|c3 c BA|\
GB EG Bc|dc de gf|1 ef ed B^B|c4:|2ef ed BG|A4||
